X:1
T:Title
%%score ( 1 2 3 ) { ( 4 6 7 ) | ( 5 8 ) }
L:1/8
Q:1/4=82
M:4/4
K:Ab
V:1 treble nm="Grand Piano, Soprano"
V:2 treble 
V:3 treble 
V:4 bass nm="Choir Pad, He Is Coming (Lillenas)"
V:6 bass 
V:7 bass 
V:5 bass 
V:8 bass 
V:1
 [CE][CA] [Ec]>[Ec] [Fd]>[Ec] [Ec][DB] | [DE]>[DG] [DB]>[DB] [Ec]>[DB] [CA]2 | %2
w: By~Haldor~Lillenas,~1909 * * * * * * *||
 [CA][CG] [DF]>[DF] [EF]>[EF] [=DF]>[DB] | z2 B6 | [CE][CA] [Ec]>[Ec] [Fd]>[Ec] [Ec][DB] | %5
w: |||
 [DE]>[DG] [DB]>[DB] [Ec]>[DB] [CA]2 | [DG]>[DF] [CE]>[CE] [CA]>[Ec] [DB]>[DB] | %7
w: ||
 [DF]>[DG] [CA]4 z2 | z2 c6 | z2 E4 A2 | [CA]>[DB] [Ec]>[Ec] [Ec]>[Ec] [=Dc]>[DB] | %11
w: ||||
 z2 z B- B3- B/ z/ | z2 c6 | z2 d4 F2 | [DG]>[DF] [CE]>[CE] [CA]>[Ec] [DB]>[DB] | z2 A6- | A4 z4 |] %17
w: ||||||
V:2
 x8 | x8 | x8 | [=DB]>[Dc] _DD GF [DE]2 | x8 | x8 | x8 | x8 | E>A AA AAA[EB] | [FA]>[DF] CC CCCC | %10
 x8 | [=DA][Dc]_DD- [D-G][DF] [DE]2 | [CE]>[CA] EE EEE[Ec] | [DB]>[Ec] FF FFDD | x8 | %15
 [DF]>[DG] .C2 DD C2- | C4 z4 |] %17
V:3
 x8 | x8 | x8 | x8 | x8 | x8 | x8 | x8 | x8 | x8 | x8 | x8 | x8 | x8 | x8 | z2 z C- C2 z2 | x8 |] %17
V:4
 A,A, A,>A, A,>A, G,G, | G,>G, G,>G, A,>G, A,2 | A,A, A,>A, =A,>A, B,>B, | B,>A, .G,2 A,G, G,2 | %4
 A,A, A,>A, A,>A, G,G, | G,>G, G,>G, A,>G, A,2 | A,>A, A,>A, A,>A, G,>G, | G,>G, A,4 z2 | %8
 z2[K:treble] CC CCCC | A,>A, A,A, A,A,A,A, | A,>A, A,>A, A,>A, A,>A, | A,A, z2 .B,2 G,2 | %12
 A,>A, A,A, A,A,A,A, | A,>A, B,B, B,B,B,B, | A,>A, A,>A, A,>A, G,>G, | z2 A,4 z2 | z8 |] %17
V:5
 A,,A,, A,,>A,, A,,>A,, E,E, | E,>E, E,>E, E,>E, A,,2 | C,C, D,>D, C,>C, B,,>B,, | %3
 B,,>B,, E,4 E,2 | A,,A,, A,,>A,, A,,>A,, E,E, | E,>E, E,>E, E,>E, A,,2 | D,>D, E,>E, E,>E, E,>E, | %7
 E,>E, A,,4 z2 | z2 A,,A,, A,,A,,A,,A,, | D,>F, z2 z4 | A,,>A,, A,,>A,, A,,>A,, B,,>B,, | %11
 B,,B,, E,6 | A,,>A,, A,,A,, A,,A,,A,,A,, | B,,>C, D,D, D,D,D,D, | D,>D, E,>E, E,>E, E,>E, | %15
 E,>E, z2 z2 E,2- | E,4 z4 |] %17
V:6
 x8 | x8 | x8 | z2 z G,- G, z z2 | x8 | x8 | x8 | x8 | x2[K:treble] x6 | x8 | x8 | %11
 z2 z A,- A,2 z2 | x8 | x8 | x8 | G,>G, z E, F,F, A,2- | A,4 z4 |] %17
V:7
 x8 | x8 | x8 | x8 | x8 | x8 | x8 | x8 | x2[K:treble] x6 | x8 | x8 | z2 G,4 z2 | x8 | x8 | x8 | %15
 x8 | x8 |] %17
V:8
 x8 | x8 | x8 | x8 | x8 | x8 | x8 | x8 | x8 | x8 | x8 | x8 | x8 | x8 | x8 | z2 A,,6- | A,,4 z4 |] %17

